assets/img/podcast/listen/radiopublic.svg

<svg xmlns="http://www.w3.org/2000/svg" width="100" height="30" fill="none" viewBox="0 0 100 30"><rect width="100" height="30" fill="#fff"/><rect width="100" height="30" fill="#CF2327"/><path fill="#fff" d="M18.7217 12.4371C18.9466 12.3596 19.1828 12.3202 19.4207 12.3206C19.6149 12.3206 19.6537 12.5924 19.6408 12.7607V14.9484C19.6588 15.0469 19.6542 15.1482 19.6272 15.2446C19.6003 15.3411 19.5518 15.4301 19.4854 15.5051C19.2913 15.7251 18.9806 15.6992 18.7217 15.751C18.7217 14.586 18.7217 13.4727 18.7217 12.4371ZM10.2816 9.73159C10.5758 9.62644 10.8904 9.59099 11.2006 9.62804C11.286 9.83253 11.3215 10.0544 11.3042 10.2753C11.3042 10.8578 11.3042 11.4403 11.3042 12.0229C11.2802 12.1134 11.2364 12.1976 11.1759 12.2692C11.1155 12.3408 11.0399 12.3982 10.9547 12.4371C10.7445 12.5128 10.5279 12.5691 10.3074 12.6054C10.2686 11.6475 10.2945 10.6636 10.2816 9.66687V9.73159ZM10.9547 7.67334C10.0659 7.90511 9.16179 8.07382 8.24919 8.1782C8.24919 8.52771 8.24919 8.87723 8.24919 9.22674C8.24919 12.8384 8.24919 16.45 8.24919 20.0746C8.9614 20.0128 9.6672 19.8915 10.3592 19.7122C10.3592 18.0164 10.3592 16.3206 10.3592 14.6377C10.6124 14.5457 10.8795 14.4976 11.1489 14.4953C11.343 14.573 11.3689 14.819 11.356 15.0002C11.356 16.2947 11.356 17.4856 11.356 18.7284C11.353 18.98 11.4108 19.2287 11.5243 19.4533C12.2267 19.2614 12.9466 19.14 13.6731 19.0908C13.5716 18.8484 13.5146 18.5897 13.5049 18.3271C13.5049 17.0326 13.5049 15.7381 13.5049 14.3659C13.5227 14.0283 13.4606 13.6912 13.3236 13.3821C13.1688 13.1097 12.9204 12.9027 12.6246 12.7996C12.8454 12.6434 13.038 12.4508 13.1942 12.23C13.483 11.738 13.6055 11.166 13.5437 10.5989C13.5957 9.83594 13.5434 9.06944 13.3883 8.32059C13.3346 8.14249 13.2398 7.97947 13.1117 7.84459C12.9835 7.70971 12.8256 7.60673 12.6505 7.54389C12.0841 7.43052 11.4973 7.4753 10.9547 7.67334ZM19.7443 10.2623C18.7314 10.5339 17.7024 10.7415 16.6634 10.8837C16.6634 14.8319 16.6634 18.7931 16.6634 22.7413C17.3625 22.6636 18.0615 22.5083 18.7476 22.3788C18.7476 20.7737 18.7476 19.1814 18.7476 17.5763C19.2731 17.5004 19.7894 17.3703 20.288 17.1879C20.7024 17.0305 21.0652 16.7617 21.3366 16.4112C21.6012 16.0283 21.7577 15.5811 21.7896 15.1167C21.7896 14.3141 21.7896 13.5115 21.7896 12.7089C21.8249 12.1619 21.7813 11.6126 21.6602 11.0779C21.5728 10.7854 21.3848 10.5332 21.1294 10.3659C20.6742 10.1754 20.1681 10.1435 19.6926 10.2753L19.7443 10.2623ZM13.9709 4.00991C14.892 3.95506 15.8125 4.12848 16.6505 4.51477C16.6505 5.5892 16.6505 6.66363 16.6505 7.73807C18.5016 7.54389 20.2751 6.84486 22.1521 6.72836C23.1319 6.64511 24.116 6.8285 25 7.2591C25 13.3001 25 19.3756 25 25.4856C23.9061 24.9902 22.6904 24.8281 21.5049 25.0196C19.7832 25.2526 18.1392 25.861 16.4045 25.9775C15.4102 26.0712 14.409 25.8969 13.5049 25.4727C13.5049 24.3983 13.5049 23.3238 13.5049 22.2494C11.9256 22.4177 10.4239 22.9355 8.87055 23.1685C7.84611 23.3776 6.78715 23.3466 5.7767 23.0779C5.51302 22.9965 5.25377 22.9015 5 22.7931C5 22.4306 5 22.0682 5 21.7057C5 15.997 5 10.2882 5 4.56655L5.47897 4.74778C6.34593 5.03356 7.26306 5.13497 8.17152 5.04551C10.1003 4.86428 11.9515 4.10053 13.9191 4.0358L13.9709 4.00991Z"/><rect width="66" height="24" x="31" y="3" fill="#fff"/><path fill="#000" d="M37.0615 12.999H38.4873C39.2881 12.999 39.7764 13.4482 39.7764 14.1807C39.7764 14.9277 39.3174 15.3574 38.5166 15.3574H37.0615V12.999ZM37.0615 16.3584H38.458L39.8398 19H41.2803L39.7422 16.1631C40.582 15.8604 41.0703 15.084 41.0703 14.1562C41.0703 12.8037 40.1426 11.9541 38.6631 11.9541H35.8018V19H37.0615V16.3584ZM44.2783 18.1357C43.7412 18.1357 43.3555 17.8672 43.3555 17.418C43.3555 16.9834 43.6729 16.7393 44.3516 16.6953L45.5576 16.6172V17.042C45.5576 17.6621 45.0107 18.1357 44.2783 18.1357ZM43.9219 19.0879C44.6201 19.0879 45.2061 18.7852 45.5039 18.2676H45.5869V19H46.7539V15.3525C46.7539 14.2197 45.9824 13.5508 44.6104 13.5508C43.3408 13.5508 42.457 14.1514 42.3594 15.0938H43.502C43.6143 14.7324 43.9951 14.5371 44.5518 14.5371C45.2061 14.5371 45.5576 14.8301 45.5576 15.3525V15.8018L44.1807 15.8848C42.8818 15.9629 42.1543 16.5195 42.1543 17.4863C42.1543 18.4629 42.8916 19.0879 43.9219 19.0879ZM50.1475 19.0879C50.8896 19.0879 51.5049 18.7412 51.8076 18.1553H51.8906V19H53.0625V11.5928H51.8516V14.5078H51.7686C51.4854 13.9219 50.8799 13.5703 50.1475 13.5703C48.7998 13.5703 47.9502 14.6348 47.9502 16.3242C47.9502 18.0234 48.7949 19.0879 50.1475 19.0879ZM50.5234 14.6006C51.3535 14.6006 51.8662 15.2646 51.8662 16.3291C51.8662 17.4033 51.3584 18.0576 50.5234 18.0576C49.6934 18.0576 49.1904 17.4082 49.1904 16.3291C49.1904 15.2549 49.6982 14.6006 50.5234 14.6006ZM54.6055 19H55.8115V13.6582H54.6055V19ZM55.2061 12.7891C55.6504 12.7891 55.9531 12.5059 55.9531 12.1201C55.9531 11.7344 55.6504 11.4512 55.2061 11.4512C54.7666 11.4512 54.459 11.7344 54.459 12.1201C54.459 12.5059 54.7666 12.7891 55.2061 12.7891ZM59.6201 19.1074C61.2168 19.1074 62.1885 18.0625 62.1885 16.3291C62.1885 14.6006 61.2119 13.5508 59.6201 13.5508C58.0332 13.5508 57.0518 14.6055 57.0518 16.3291C57.0518 18.0625 58.0186 19.1074 59.6201 19.1074ZM59.6201 18.0918C58.7754 18.0918 58.292 17.4473 58.292 16.3291C58.292 15.2158 58.7754 14.5664 59.6201 14.5664C60.46 14.5664 60.9434 15.2158 60.9434 16.3291C60.9434 17.4473 60.4648 18.0918 59.6201 18.0918ZM63.5361 11.9541V19H64.7959V16.6904H66.3242C67.75 16.6904 68.7461 15.7334 68.7461 14.3369C68.7461 12.916 67.7842 11.9541 66.3779 11.9541H63.5361ZM64.7959 13.0088H66.0459C66.9541 13.0088 67.4668 13.4727 67.4668 14.3369C67.4668 15.1768 66.9395 15.6455 66.041 15.6455H64.7959V13.0088ZM74.6592 13.6582H73.4482V16.7686C73.4482 17.5596 73.0186 18.043 72.2324 18.043C71.5098 18.043 71.1729 17.6426 71.1729 16.8271V13.6582H69.9619V17.1299C69.9619 18.3799 70.6455 19.1074 71.8125 19.1074C72.6279 19.1074 73.1504 18.7607 73.4092 18.1504H73.4922V19H74.6592V13.6582ZM79.1123 19.0879C80.46 19.0879 81.3047 18.0283 81.3047 16.3291C81.3047 14.6201 80.4648 13.5703 79.1123 13.5703C78.3799 13.5703 77.7646 13.9268 77.4863 14.5078H77.4033V11.5928H76.1924V19H77.3594V18.1553H77.4424C77.7451 18.7412 78.3652 19.0879 79.1123 19.0879ZM78.7314 14.6006C79.5566 14.6006 80.0596 15.2549 80.0596 16.3291C80.0596 17.4033 79.5615 18.0576 78.7314 18.0576C77.9014 18.0576 77.3838 17.3936 77.3838 16.3291C77.3838 15.2646 77.9062 14.6006 78.7314 14.6006ZM82.5693 19H83.7803V11.5928H82.5693V19ZM85.3281 19H86.5342V13.6582H85.3281V19ZM85.9287 12.7891C86.373 12.7891 86.6758 12.5059 86.6758 12.1201C86.6758 11.7344 86.373 11.4512 85.9287 11.4512C85.4893 11.4512 85.1816 11.7344 85.1816 12.1201C85.1816 12.5059 85.4893 12.7891 85.9287 12.7891ZM92.6523 15.4551C92.5254 14.332 91.6953 13.5508 90.3232 13.5508C88.7168 13.5508 87.7744 14.5811 87.7744 16.3145C87.7744 18.0723 88.7217 19.1074 90.3281 19.1074C91.6807 19.1074 92.5205 18.3555 92.6523 17.2373H91.5C91.373 17.7939 90.9531 18.0918 90.3232 18.0918C89.498 18.0918 89 17.4375 89 16.3145C89 15.2061 89.4932 14.5664 90.3232 14.5664C90.9873 14.5664 91.3877 14.9375 91.5 15.4551H92.6523Z"/></svg>

<svg xmlns="http://www.w3.org/2000/svg" width="100" height="30" fill="none"><path fill="#fff" d="M0 0H100V30H0z"/><path fill="#CF2327" d="M0 0H100V30H0z"/><path fill="#fff" d="M18.722 12.437c.225-.077.46-.117.699-.116.194 0 .233.271.22.44v2.187a.659.659 0 0 1-.156.557c-.194.22-.504.194-.763.246v-3.314zm-8.44-2.705a2.02 2.02 0 0 1 .919-.104c.085.205.12.426.103.647v1.748a.633.633 0 0 1-.35.414c-.21.076-.426.132-.647.168-.038-.957-.013-1.941-.025-2.938v.065zm.673-2.059c-.89.232-1.793.4-2.706.505v11.897a12.837 12.837 0 0 0 2.11-.363v-5.074c.253-.092.52-.14.79-.143.194.078.22.324.207.505v3.728c-.003.252.055.5.168.725a10.965 10.965 0 0 1 2.15-.362 2.186 2.186 0 0 1-.17-.764v-3.961a2.149 2.149 0 0 0-.18-.984 1.294 1.294 0 0 0-.7-.582c.221-.157.414-.35.57-.57a2.654 2.654 0 0 0 .35-1.631c.052-.763 0-1.53-.156-2.278a1.19 1.19 0 0 0-.738-.777 3.146 3.146 0 0 0-1.695.13zm8.79 2.59c-1.014.27-2.043.479-3.082.62v11.858c.7-.077 1.398-.233 2.085-.362v-4.803a7.679 7.679 0 0 0 1.54-.388 2.407 2.407 0 0 0 1.049-.777 2.59 2.59 0 0 0 .453-1.294v-2.408a5.717 5.717 0 0 0-.13-1.631 1.294 1.294 0 0 0-.53-.712 2.2 2.2 0 0 0-1.437-.09l.051-.014zM13.97 4.01a5.605 5.605 0 0 1 2.68.505v3.223c1.85-.194 3.624-.893 5.501-1.01A5.45 5.45 0 0 1 25 7.26v18.227a6.11 6.11 0 0 0-3.495-.466c-1.722.233-3.366.841-5.1.957a5.591 5.591 0 0 1-2.9-.504v-3.224c-1.58.169-3.081.687-4.634.92a6.77 6.77 0 0 1-3.094-.091A7.937 7.937 0 0 1 5 22.793v-1.087-17.14l.479.182a6.55 6.55 0 0 0 2.693.298c1.928-.182 3.78-.945 5.747-1.01l.052-.026z"/><path fill="#fff" d="M31 3H97V27H31z"/><path fill="#000" d="M37.062 12.999h1.425c.801 0 1.29.45 1.29 1.182 0 .747-.46 1.176-1.26 1.176H37.06V13zm0 3.36h1.396L39.84 19h1.44l-1.538-2.837c.84-.303 1.328-1.079 1.328-2.007 0-1.352-.927-2.202-2.407-2.202h-2.861V19h1.26v-2.642zm7.216 1.777c-.537 0-.922-.269-.922-.718 0-.435.317-.679.996-.723l1.206-.078v.425c0 .62-.547 1.094-1.28 1.094zm-.356.952c.698 0 1.284-.303 1.582-.82h.083V19h1.167v-3.648c0-1.132-.772-1.801-2.144-1.801-1.27 0-2.153.6-2.25 1.543h1.142c.112-.362.493-.557 1.05-.557.654 0 1.006.293 1.006.815v.45l-1.377.083c-1.3.078-2.027.635-2.027 1.601 0 .977.738 1.602 1.768 1.602zm6.226 0c.742 0 1.357-.347 1.66-.933h.083V19h1.172v-7.407h-1.211v2.915h-.083c-.284-.586-.89-.938-1.621-.938-1.348 0-2.198 1.065-2.198 2.754 0 1.7.845 2.764 2.197 2.764zm.375-4.487c.83 0 1.343.664 1.343 1.728 0 1.074-.508 1.729-1.343 1.729-.83 0-1.333-.65-1.333-1.729 0-1.074.508-1.728 1.333-1.728zM54.605 19h1.207v-5.342h-1.206V19zm.601-6.21c.444 0 .747-.284.747-.67 0-.386-.303-.669-.747-.669-.44 0-.747.283-.747.67 0 .385.308.668.747.668zm4.414 6.317c1.597 0 2.569-1.044 2.569-2.778 0-1.728-.977-2.778-2.569-2.778-1.587 0-2.568 1.054-2.568 2.778 0 1.733.967 2.778 2.568 2.778zm0-1.015c-.845 0-1.328-.645-1.328-1.763 0-1.113.483-1.763 1.328-1.763.84 0 1.323.65 1.323 1.763 0 1.118-.478 1.763-1.323 1.763zm3.916-6.138V19h1.26v-2.31h1.528c1.426 0 2.422-.957 2.422-2.353 0-1.421-.962-2.383-2.368-2.383h-2.842zm1.26 1.055h1.25c.908 0 1.42.464 1.42 1.328 0 .84-.526 1.309-1.425 1.309h-1.245v-2.637zm9.863.65h-1.21v3.11c0 .79-.43 1.274-1.217 1.274-.722 0-1.06-.4-1.06-1.216v-3.169h-1.21v3.472c0 1.25.683 1.977 1.85 1.977.816 0 1.338-.346 1.597-.957h.083V19h1.167v-5.342zm4.453 5.429c1.348 0 2.193-1.06 2.193-2.759 0-1.709-.84-2.759-2.193-2.759-.732 0-1.347.357-1.626.938h-.083v-2.915h-1.21V19h1.166v-.845h.083c.303.586.923.933 1.67.933zm-.38-4.487c.825 0 1.328.654 1.328 1.728 0 1.074-.499 1.729-1.329 1.729s-1.347-.664-1.347-1.729c0-1.064.522-1.728 1.347-1.728zM82.568 19h1.211v-7.407h-1.21V19zm2.76 0h1.205v-5.342h-1.206V19zm.6-6.21c.444 0 .747-.284.747-.67 0-.386-.303-.669-.747-.669-.44 0-.747.283-.747.67 0 .385.307.668.747.668zm6.723 2.665c-.127-1.123-.957-1.904-2.329-1.904-1.606 0-2.549 1.03-2.549 2.763 0 1.758.948 2.793 2.554 2.793 1.353 0 2.192-.752 2.324-1.87H91.5c-.127.557-.547.855-1.177.855-.825 0-1.323-.654-1.323-1.777 0-1.109.493-1.749 1.323-1.749.664 0 1.065.371 1.177.89h1.152z"/></svg>
